X:1
T:[ID 1-111]
T:[ID 1-111]
T:Bezeichnung standardisiert: Boure Boure 16
T:Urheber unbekannt Datum in der hier transkribierten schriftlichen Quelle: 1775
C:Urheber unbekannt
C:Datum in der hier transkribierten schriftlichen Quelle: 1775
L:1/8
M:2/4
K:D
V:1 treble 
V:1
 f | (fe)(ed) | d2 f2 |{g} fe/d/ec | c2 (3cde | dAFE | F2 c2 |{e} dA/F/ E/F/G/E/ | F2 z :: A/B/ | %10
 cccc | c2 Fd | ffff | f3 f | (fe)(ed) | d2 f2 |{g} fe/d/ec | c2 e2 | dAFE | F2 c2 | %20
{e} dA/F/ E/F/G/E/ | F2 z :| %22

